!!!OTL: Xiashui bannao haozi 3. Erliulu haozi
!!!ARE: Asia, China,ÿSichuan, Chongqing
!! Hanzu minge gailun, 81
!!!SCT: C1713B
!!!YEM: Copyright 1995, estate of Helmut Schaffrath.
**kern
*ICvox
*Ivox
!! Mixed meters:  2/4; 3/4
*M3/4
*k[f#c#g#]
*A:
{4b
24a
24b
24a
8f#
4f#}
=1
*M2/4
{[8.cc#
32cc#]
32b
16a
8.f#}
=2
{16.ff#
32ee
32cc#
32ee
16ff#
4f#}
=3
{16ee
8.cc#
4f#}
=4
{16aa
16ff#
32ee
16.cc#
16ff#
16cc#
16b
16a
=5
8.cc#
16b
16a
8.f#}
=6
{8b
8f#
16ff#
32cc#
32ee
16a
16b
=7
[8.cc#
32cc#]
32b
16a
8.f#}
=8
{16aa
16ff#
32ee
16.cc#
16ff#
16cc#
16b
16a
=9
8.cc#
32b
32a
4f#}
==
!!!AGN: Haozi, Chuanjiang chuanfu haozi
!!!AMT: irregular
!!!AIN: vox
!!!EED: Helmut Schaffrath
!!!EEV: 1.0
*-
